public/engineering.svg

<?xml version="1.0" encoding="UTF-8"?>
<svg width="90px" height="90px" viewBox="0 0 90 90" version="1.1" xmlns="http://www.w3.org/2000/svg" xmlns:xlink="http://www.w3.org/1999/xlink">
    <title>ENGINEERING</title>
    <defs>
        <polygon id="path-1" points="0 0 90 0 90 90 0 90"></polygon>
    </defs>
    <g id="Page-1" stroke="none" stroke-width="1" fill="none" fill-rule="evenodd">
        <g id="HOMEPAGE_FINAL" transform="translate(-390.000000, -3042.000000)">
            <g id="ENGINEERING" transform="translate(390.000000, 3042.000000)">
                <g id="Group-3">
                    <mask id="mask-2" fill="white">
                        <use xlink:href="#path-1"></use>
                    </mask>
                    <g id="Clip-2"></g>
                    <path d="M39.7693382,84.9552787 C40.0120328,84.9679255 40.1906939,84.9845245 40.369355,84.9845245 C43.4690468,84.9861054 46.5679481,84.9726681 49.6676399,84.9972316 C50.1577722,85.0011236 50.2850485,84.8106301 50.3229943,84.3830079 C50.4645002,82.7776463 50.624979,81.1730751 50.7807146,79.5685039 C51.0328956,76.9806388 52.3143545,75.1326154 54.7294421,74.1113809 C56.0306644,73.5620326 57.3374205,73.0253312 58.6441766,72.4886298 C61.0371291,71.5061264 63.25063,71.8143937 65.2649159,73.4418874 C66.561395,74.489206 67.8523403,75.5436385 69.1251033,76.6194126 C69.4642433,76.9063384 69.667411,76.8881586 69.9765106,76.5751486 C72.168667,74.3595757 74.3711004,72.1534878 76.5917162,69.9655799 C76.9435047,69.6193719 76.883424,69.4091178 76.6012026,69.0731854 C75.4928711,67.7563304 74.3869112,66.4363137 73.3275929,65.0807276 C71.8579864,63.2018775 71.5520489,61.1127732 72.4081995,58.8885055 C72.9805476,57.4024987 73.5924224,55.9299292 74.2367093,54.4739586 C75.0493804,52.6377917 76.43519,51.3596677 78.4091585,50.9944894 C80.3617825,50.6340537 82.3610481,50.5131181 84.342922,50.3210438 C84.8330543,50.273618 85.0204114,50.1337121 85.0164587,49.6041245 C84.9911615,46.523822 84.990371,43.4427291 85.0173077,40.3624267 C85.0212019,39.8439051 84.825149,39.7182269 84.3666381,39.6794959 C82.7420865,39.5411708 81.119116,39.3807136 79.4977266,39.2115618 C76.9537817,38.946768 75.1395015,37.6662728 74.1355207,35.2934044 C73.571078,33.9599504 73.0082163,32.625706 72.4706518,31.281186 C71.5204275,28.9019942 71.8508716,26.7061819 73.4770042,24.7166717 C74.5205117,23.440919 75.5569045,22.1580525 76.6225471,20.9004797 C76.9221602,20.5463674 76.9126738,20.3345324 76.5790676,20.0049234 C74.371891,17.8296624 72.178944,15.6401736 70.0018078,13.4356666 C69.6737353,13.1028959 69.4658243,13.0831352 69.1092926,13.3834983 C67.8088608,14.4821948 66.4941994,15.5650828 65.1621462,16.6258387 C63.2213802,18.1711278 61.0742843,18.4572631 58.7769866,17.5585452 C57.3777378,17.0107777 55.9863944,16.4400879 54.6116522,15.8346191 C52.5183128,14.9137692 51.2186716,13.3265874 50.8763695,11.0509418 C50.6684585,9.67322377 50.580709,8.27811629 50.437622,6.8909131 C50.3751696,6.28228264 50.3079741,5.67444261 50.241569,5.056327 C50.0368202,5.03893756 49.8945237,5.01601511 49.7522272,5.01601511 C46.6161708,5.01443425 43.4809049,5.02629069 40.345639,5.00411801 C39.863412,5.00099696 39.7258587,5.18200524 39.687913,5.61674128 C39.5471976,7.24107322 39.3882998,8.8638243 39.2246589,10.485785 C38.9629914,13.0791831 37.6420057,14.898751 35.2277087,15.9073386 C33.8909122,16.4653816 32.5604401,17.0400236 31.2109951,17.5664495 C28.9326702,18.4564727 26.7990135,18.1671756 24.8732677,16.644809 C23.5238227,15.5777297 22.2012559,14.475081 20.8834323,13.3684801 C20.5521977,13.0902491 20.3442867,13.0918299 20.0304439,13.4095825 C17.8928345,15.5769392 15.7354617,17.7245353 13.5844131,19.8784548 C13.0168082,20.4467733 13.0231325,20.4436116 13.5180081,21.0427569 C14.5559819,22.2995393 15.6018611,23.5507887 16.619281,24.8241701 C18.1821707,26.7804823 18.4707163,28.9415156 17.552904,31.2566827 C16.9932045,32.66997 16.4121605,34.0761435 15.797914,35.4672988 C14.8690342,37.5698404 13.2444826,38.8258324 10.9716915,39.1412136 C9.21512045,39.3846658 7.44194812,39.5237813 5.67351901,39.6747533 C5.18338667,39.7174365 4.99207695,39.8557616 4.99682017,40.3893013 C5.02290786,43.4703942 5.02369839,46.5506966 4.99597064,49.6317895 C4.99207695,50.1487302 5.18654882,50.2775702 5.64268811,50.3163012 C7.26723966,50.4546263 8.8894196,50.614293 10.5115995,50.7787023 C12.9891395,51.0316396 14.7923522,52.2599665 15.8121437,54.5466781 C16.4382482,55.9512707 17.0208733,57.3764145 17.5789917,58.810253 C18.4659731,61.0906412 18.1671505,63.2208478 16.6358822,65.143962 C15.5639153,66.4900628 14.470604,67.8195647 13.3622725,69.1364197 C13.0903281,69.4604957 13.1053483,69.6486178 13.4025898,69.9426575 C15.6311109,72.1479548 17.849355,74.3643182 20.05416,76.5933285 C20.3498205,76.8929011 20.5450829,76.9039671 20.8628784,76.6360117 C22.1664723,75.5412673 23.4803432,74.4575889 24.8084437,73.3912999 C26.666994,71.8989697 28.752428,71.5282584 30.9856923,72.3424004 C32.5493726,72.9122998 34.0814314,73.5754699 35.6016322,74.2544486 C37.2593863,74.9950807 38.4483525,76.2455396 38.8981675,78.0042445 C39.2262399,79.2910632 39.2973882,80.6450684 39.4602386,81.972199 C39.5811906,82.9562833 39.665778,83.9451102 39.7693382,84.9552787 M81.9112331,20.2902684 C81.896213,21.6988131 81.4914585,22.8212226 80.7001319,23.7974026 C79.604449,25.148246 78.507185,26.4982991 77.3877859,27.8293818 C76.9529911,28.345532 76.8612889,28.8561493 77.1308617,29.4790075 C77.6771221,30.7413228 78.1996665,32.0139138 78.7119338,33.2904569 C78.9562094,33.8990874 79.3767746,34.1828514 80.0273858,34.2397623 C81.8139972,34.3978482 83.598237,34.578066 85.3816863,34.7717212 C87.9880836,35.0539044 89.9897209,37.2892381 89.9936736,39.906349 C89.9984168,43.276739 89.9968357,46.6479194 90,50.0183094 C90.0023695,52.6867983 88.0457928,54.9126468 85.3935444,55.2145908 C83.6116761,55.4185215 81.8266458,55.590835 80.0400343,55.7520826 C79.3949569,55.8097839 78.9633243,56.0793203 78.7174676,56.6926933 C78.1996665,57.9874163 77.662102,59.2734445 77.115051,60.5555207 C76.8581268,61.1586181 76.9608965,61.6550076 77.3814617,62.1561397 C78.5340632,63.530696 79.6850837,64.9076237 80.7847193,66.3240727 C82.1958261,68.1420598 82.2922715,70.612151 81.0653596,72.4182816 C80.832942,72.7605374 80.5459774,73.0711761 80.2534791,73.3652158 C77.9008438,75.7278085 75.5450465,78.08803 73.1805532,80.4387664 C71.3789215,82.2298789 68.4507761,82.4116776 66.4159363,80.8292384 C64.9866472,79.7171046 63.5921416,78.5583354 62.2047509,77.3932428 C61.6703485,76.944279 61.1485947,76.8462658 60.5058889,77.1252873 C59.2600041,77.6651504 58.0046329,78.183672 56.7429374,78.6848041 C56.1128802,78.9353701 55.8195913,79.3637827 55.7610916,80.0372284 C55.6085182,81.7872386 55.4211611,83.5348774 55.2393379,85.2825163 C54.9642313,87.9344062 52.7831424,89.9610666 50.1221981,89.9816177 C46.7149878,90.0069115 43.306987,90.0053306 39.8997766,89.9816177 C37.2301365,89.9634379 35.0419327,87.9375679 34.7747315,85.2959536 C34.5944893,83.511955 34.4071323,81.7279564 34.2395386,79.9431673 C34.1834106,79.3353273 33.8956555,78.9401127 33.3335843,78.7116787 C32.0244567,78.1805103 30.7200722,77.6398567 29.4180594,77.0920893 C28.8599409,76.8573318 28.3745518,76.9253087 27.9049734,77.3173616 C26.6393252,78.373375 25.3554947,79.4088372 24.0874749,80.4616888 C21.9814869,82.2109086 19.3339817,82.384803 17.3347161,80.8687599 C16.9046645,80.5423126 16.532322,80.1376129 16.1481215,79.7542547 C14.042924,77.6556653 11.9416792,75.5539141 9.84122499,73.4513725 C7.65697393,71.2674167 7.48938029,68.5088189 9.41749768,66.0750875 C10.4752349,64.7408431 11.5614314,63.4287307 12.6563238,62.1237321 C13.0642404,61.6376182 13.1480372,61.149133 12.9021805,60.5689579 C12.3590823,59.285301 11.8238894,57.9984823 11.3052977,56.7053402 C11.0610221,56.0967097 10.6365042,55.8105744 9.98826469,55.7512922 C8.20244379,55.5900446 6.41820396,55.4106172 4.63475466,55.2177525 C2.06314094,54.938731 0.0543888792,52.7879732 0.026720118,50.1937847 C-0.0112256117,46.6961356 -0.00964453962,43.1976961 0.0362065504,39.7008375 C0.0686185278,37.1801588 2.08606649,35.0578565 4.6244777,34.7780446 C6.40713645,34.5820182 8.19216682,34.4033812 9.97798772,34.2413432 C10.6230651,34.1836419 11.0546978,33.9117342 11.299764,33.2991516 C11.8183556,32.0052191 12.3511769,30.7168195 12.90139,29.4363243 C13.1622669,28.8308555 13.0571256,28.334466 12.638932,27.8364956 C11.5321816,26.5188502 10.4388702,25.1885579 9.35899801,23.8487805 C7.53444084,21.5857818 7.70282502,18.6777929 9.75663763,16.62821 C12.0776514,14.3106717 14.3891788,11.9836482 16.7173074,9.67322377 C18.694438,7.70979772 21.5854283,7.55013103 23.7728415,9.28828477 C25.1341446,10.3703823 26.4788464,11.4738214 27.8061564,12.5978117 C28.3603221,13.0673266 28.8978866,13.1345131 29.5548221,12.8460065 C30.7983353,12.3014008 32.0568686,11.7892027 33.3185642,11.2864897 C33.9106756,11.0509418 34.1873633,10.6383378 34.2458629,10.0138987 C34.4158282,8.19274994 34.5857934,6.37081071 34.7968665,4.55361405 C35.0917365,2.01949813 37.2704538,0.0505390732 39.8404864,0.0276166273 C43.3014532,-0.00400053947 46.764001,-0.00953354365 50.2257583,0.0165506189 C52.7444061,0.035520919 54.923914,2.02265985 55.2211555,4.54017675 C55.4330192,6.33840311 55.6029844,8.1429529 55.7610916,9.94750269 C55.8195913,10.6154153 56.0939073,11.0525227 56.7318699,11.3038791 C57.9951465,11.8010591 59.2497272,12.3227423 60.495612,12.8633959 C61.1351556,13.1408365 61.6608621,13.0562606 62.196055,12.6049256 C63.5265271,11.4848874 64.8775532,10.3893526 66.2317414,9.29856035 C68.3835805,7.56435875 71.3314894,7.71770201 73.2888566,9.66610991 C75.6778565,12.0437209 78.058951,14.4300265 80.4424172,16.8139609 C81.4432358,17.8146442 81.9009562,19.0358573 81.9112331,20.2902684" id="Fill-1" stroke="#22222B" stroke-width="1.28571429" fill="#22222B" mask="url(#mask-2)"></path>
                </g>
                <path d="M58.8313755,45.0163155 C58.830585,37.3372962 52.6493837,31.1553496 44.978022,31.1608789 C37.3414439,31.1664156 31.1705196,37.3538952 31.1681473,45.00604 C31.1657764,52.666089 37.3714843,58.8480356 45.0483797,58.8322572 C52.6541269,58.8172088 58.832166,52.6249867 58.8313755,45.0163155 M45.0120151,63.8293807 C34.5152776,63.8024456 26.1379672,55.3906984 26.1608458,44.9017033 C26.1838183,34.5194162 34.655993,26.1345436 45.097393,26.1597802 C55.5000566,26.185131 63.8702522,34.6672264 63.8395062,45.1506885 C63.8085904,55.439705 55.3261387,63.8554043 45.0120151,63.8293807" id="Fill-4" stroke="#22222B" stroke-width="1.28571429" fill="#22222B"></path>
            </g>
        </g>
    </g>
</svg>

<svg width="90" height="90" xmlns="http://www.w3.org/2000/svg" xmlns:xlink="http://www.w3.org/1999/xlink"><defs><path id="a" d="M0 0h90v90H0z"/></defs><g fill="none" fill-rule="evenodd"><g><mask id="b" fill="#fff"><use xlink:href="#a"/></mask><path d="M39.77 84.955c.242.013.42.03.6.03 3.099.001 6.198-.012 9.298.012.49.004.617-.186.655-.614.142-1.605.302-3.21.458-4.814.252-2.588 1.533-4.436 3.948-5.458 1.302-.549 2.608-1.086 3.915-1.622 2.393-.983 4.607-.675 6.62.953a224.956 224.956 0 0 1 3.861 3.177c.34.287.542.27.852-.044a734.507 734.507 0 0 1 6.615-6.61c.352-.346.291-.556.01-.892-1.11-1.317-2.215-2.637-3.274-3.992-1.47-1.88-1.776-3.968-.92-6.192a97.64 97.64 0 0 1 1.829-4.415c.812-1.836 2.198-3.114 4.172-3.48 1.953-.36 3.952-.48 5.934-.673.49-.047.677-.187.673-.717-.025-3.08-.026-6.161.001-9.242.004-.518-.192-.644-.65-.683a257.368 257.368 0 0 1-4.87-.467c-2.543-.265-4.357-1.546-5.361-3.919a216.399 216.399 0 0 1-1.665-4.012c-.95-2.379-.62-4.575 1.006-6.564 1.044-1.276 2.08-2.559 3.146-3.817.3-.354.29-.565-.044-.895a687.13 687.13 0 0 1-6.577-6.57c-.328-.332-.536-.352-.893-.052a176.113 176.113 0 0 1-3.947 3.243c-1.94 1.545-4.088 1.831-6.385.933-1.4-.548-2.79-1.119-4.165-1.724-2.094-.921-3.393-2.508-3.736-4.784-.208-1.378-.295-2.773-.438-4.16-.063-.609-.13-1.217-.196-1.835-.205-.017-.347-.04-.49-.04-3.136-.002-6.271.01-9.406-.012-.483-.003-.62.178-.658.613-.14 1.624-.3 3.247-.463 4.869-.262 2.593-1.583 4.413-3.997 5.421-1.337.558-2.668 1.133-4.017 1.66-2.278.89-4.412.6-6.338-.922a175.552 175.552 0 0 1-3.99-3.277c-.33-.278-.539-.276-.853.042-2.137 2.167-4.295 4.315-6.446 6.468-.567.569-.56.566-.066 1.165 1.038 1.257 2.084 2.508 3.101 3.781 1.563 1.956 1.852 4.118.934 6.433a117.85 117.85 0 0 1-1.755 4.21c-.929 2.103-2.554 3.359-4.826 3.674-1.757.244-3.53.383-5.298.534-.49.042-.682.18-.677.714.026 3.081.027 6.162-.001 9.243-.004.517.19.646.647.684 1.624.139 3.246.298 4.869.463 2.477.253 4.28 1.481 5.3 3.768a95.955 95.955 0 0 1 1.767 4.263c.887 2.28.588 4.41-.943 6.334a190.422 190.422 0 0 1-3.274 3.992c-.272.324-.257.513.04.807a879.37 879.37 0 0 1 6.652 6.65c.296.3.491.311.809.043a231.696 231.696 0 0 1 3.945-3.245c1.859-1.492 3.944-1.863 6.178-1.049 1.563.57 3.095 1.233 4.616 1.912 1.657.741 2.846 1.992 3.296 3.75.328 1.287.4 2.641.562 3.968.121.984.206 1.973.31 2.983M81.91 20.29c-.015 1.409-.42 2.531-1.21 3.507-1.097 1.351-2.194 2.701-3.313 4.032-.435.517-.527 1.027-.257 1.65a154.026 154.026 0 0 1 1.58 3.811c.245.61.666.893 1.316.95 1.787.158 3.571.338 5.355.532 2.606.282 4.608 2.517 4.612 5.134.004 3.37.003 6.742.006 10.112.002 2.669-1.954 4.895-4.606 5.197-1.782.204-3.567.376-5.354.537-.645.058-1.077.327-1.323.94a182.966 182.966 0 0 1-1.602 3.864c-.257.603-.154 1.099.266 1.6 1.153 1.375 2.304 2.752 3.404 4.168 1.41 1.818 1.507 4.288.28 6.094a6.75 6.75 0 0 1-.812.947 1989.073 1989.073 0 0 1-7.072 7.074c-1.802 1.79-4.73 1.973-6.765.39a145.845 145.845 0 0 1-4.211-3.436c-.535-.449-1.056-.547-1.7-.268-1.245.54-2.5 1.059-3.762 1.56-.63.25-.923.679-.982 1.352-.152 1.75-.34 3.498-.522 5.246-.275 2.651-2.456 4.678-5.117 4.699-3.407.025-6.815.023-10.222 0a5.186 5.186 0 0 1-5.125-4.686c-.18-1.784-.368-3.568-.535-5.353-.057-.608-.344-1.003-.906-1.231a331.423 331.423 0 0 1-3.916-1.62c-.558-.235-1.043-.167-1.513.225-1.266 1.056-2.55 2.092-3.818 3.145-2.106 1.749-4.753 1.923-6.752.407-.43-.327-.803-.731-1.187-1.115a4310.2 4310.2 0 0 1-6.307-6.303c-2.184-2.184-2.352-4.942-.424-7.376a184.06 184.06 0 0 1 3.24-3.951c.407-.486.491-.975.245-1.555a221.762 221.762 0 0 1-1.597-3.864c-.244-.608-.668-.894-1.317-.954-1.786-.161-3.57-.34-5.353-.533-2.572-.28-4.58-2.43-4.608-5.024-.038-3.498-.037-6.996.01-10.493.032-2.52 2.05-4.643 4.587-4.923 1.783-.196 3.568-.375 5.354-.537.645-.057 1.077-.33 1.322-.942a169.664 169.664 0 0 1 1.601-3.863c.261-.605.156-1.102-.262-1.6a255.24 255.24 0 0 1-3.28-3.987c-1.825-2.263-1.656-5.171.398-7.22 2.32-2.318 4.632-4.645 6.96-6.956 1.977-1.963 4.868-2.123 7.056-.385a168.199 168.199 0 0 1 4.033 3.31c.554.47 1.092.537 1.749.248a121.173 121.173 0 0 1 3.764-1.56c.592-.235.868-.648.927-1.272.17-1.821.34-3.643.55-5.46C35.093 2.019 37.27.05 39.84.028c3.461-.032 6.924-.038 10.386-.011 2.518.019 4.698 2.006 4.995 4.523.212 1.798.382 3.603.54 5.408.059.667.333 1.105.97 1.356 1.264.497 2.519 1.019 3.765 1.56.64.277 1.165.192 1.7-.26A240.97 240.97 0 0 1 66.232 9.3c2.152-1.735 5.1-1.581 7.057.367 2.389 2.378 4.77 4.764 7.153 7.148 1.001 1 1.459 2.222 1.47 3.476" stroke="#22222B" stroke-width="1.286" fill="#22222B" mask="url(#b)"/></g><path d="M58.831 45.016a13.821 13.821 0 0 0-13.853-13.855c-7.637.005-13.807 6.193-13.81 13.845-.002 7.66 6.203 13.842 13.88 13.826 7.606-.015 13.784-6.207 13.783-13.816M45.012 63.83c-10.497-.027-18.874-8.438-18.851-18.927.023-10.383 8.495-18.767 18.936-18.742 10.403.025 18.773 8.507 18.743 18.99-.031 10.29-8.514 18.705-18.828 18.68" stroke="#22222B" stroke-width="1.286" fill="#22222B"/></g></svg>
